svgs/one_jotter.svg

<svg width="192" height="192" viewBox="0 0 192 192" fill="none" xmlns="http://www.w3.org/2000/svg">
<path d="M25 170L166.567 170" stroke="black" stroke-width="12" stroke-linecap="round"/>
<path d="M47.5 115C49.3018 115.867 58.1046 121.569 62.4937 121.569C66.841 121.569 68.5967 120.607 73.4456 115.633C77.6257 111.286 78.9215 110.575 81.2206 111.202C82.2656 111.453 82.809 111.996 83.4778 113.334C86.9473 120.148 90.2914 121.694 96.3107 119.27C101.16 117.305 103.124 117.932 106.594 122.53C111.986 129.72 116.041 131.977 120.012 130.096C123.105 128.633 123.523 125.582 121.057 121.694C118.967 118.35 119.26 115.466 121.893 113.919C122.52 113.543 123.732 113.209 124.61 113.209C126.867 113.209 136 116 138.154 117.013L155 124.5" stroke="black" stroke-width="8" stroke-linecap="round"/>
<path d="M94.022 22.3156C93.5525 22.5917 89.444 29.7307 80.3663 46.0597C77.5491 51.1477 71.8755 61.2842 67.8453 68.5416C63.776 75.7989 57.7111 86.7243 54.3461 92.7984C50.9811 98.8724 46.99 106.051 45.464 108.772C36.7384 124.273 25 145.493 25 145.69C25 145.769 25.1956 145.848 25.4304 145.848C25.6652 145.848 28.2868 146.834 31.2605 148.017C36.4254 150.068 36.8167 150.186 40.2208 150.186C43.0772 150.186 44.251 149.989 46.4031 149.161C52.1941 146.913 55.4026 145.887 57.4372 145.611C60.2153 145.256 64.5585 146.203 69.293 148.214C75.8666 150.975 80.0924 151.015 86.2747 148.412C88.1919 147.583 91.0483 146.558 92.6134 146.124C96.1741 145.138 97.5044 145.335 104.234 148.017C111.864 151.054 115.856 151.133 122.312 148.293C130.489 144.665 134.794 144.783 144.223 148.766C149.31 150.936 153.419 150.936 158.466 148.806C159.836 148.214 162.222 147.307 163.709 146.755C165.235 146.203 166.487 145.729 166.566 145.651C166.644 145.572 164.257 141.115 161.244 135.751C149.545 114.649 146.415 109.048 141.406 100.095C138.55 95.0071 132.915 84.8705 128.885 77.6132C124.855 70.3559 119.299 60.4165 116.56 55.5257C113.821 50.6349 110.573 44.7975 109.321 42.5099C104.156 33.1227 98.0522 22.5917 97.6218 22.3156C97.387 22.1578 96.5654 22.0001 95.8219 22.0001C95.0785 22.0001 94.2568 22.1578 94.022 22.3156Z" stroke="black" stroke-width="12"/>
</svg>

<svg xmlns="http://www.w3.org/2000/svg" width="192" height="192" fill="none" viewBox="0 0 192 192"><path stroke="#000" stroke-linecap="round" stroke-width="12" d="M25 170h141.567"/><path stroke="#000" stroke-linecap="round" stroke-width="8" d="M47.5 115c1.802.867 10.605 6.569 14.994 6.569 4.347 0 6.103-.962 10.952-5.936 4.18-4.347 5.475-5.058 7.775-4.431 1.045.251 1.588.794 2.257 2.132 3.47 6.814 6.813 8.36 12.833 5.936 4.849-1.965 6.813-1.338 10.283 3.26 5.392 7.19 9.447 9.447 13.418 7.566 3.093-1.463 3.511-4.514 1.045-8.402-2.09-3.344-1.797-6.228.836-7.775.627-.376 1.839-.71 2.717-.71 2.257 0 11.39 2.791 13.544 3.804L155 124.5"/><path stroke="#000" stroke-width="12" d="M94.022 22.316c-.47.276-4.578 7.415-13.656 23.744-2.817 5.088-8.49 15.224-12.52 22.482a6405 6405 0 0 0-13.5 24.256 4886 4886 0 0 1-8.882 15.974C36.738 124.273 25 145.493 25 145.69c0 .079.196.158.43.158.235 0 2.857.986 5.83 2.169 5.165 2.051 5.557 2.169 8.96 2.169 2.857 0 4.031-.197 6.183-1.025 5.791-2.248 9-3.274 11.034-3.55 2.778-.355 7.121.592 11.856 2.603 6.574 2.761 10.8 2.801 16.982.198 1.917-.829 4.773-1.854 6.338-2.288 3.561-.986 4.891-.789 11.621 1.893 7.63 3.037 11.622 3.116 18.078.276 8.177-3.628 12.482-3.51 21.911.473 5.087 2.17 9.196 2.17 14.243.04 1.37-.592 3.756-1.499 5.243-2.051 1.526-.552 2.778-1.026 2.857-1.104.078-.079-2.309-4.536-5.322-9.9-11.699-21.102-14.829-26.703-19.838-35.656a7344 7344 0 0 1-12.521-22.482 8218 8218 0 0 0-12.325-22.087 2110 2110 0 0 1-7.239-13.016c-5.165-9.387-11.269-19.918-11.7-20.194-.234-.158-1.056-.316-1.8-.316-.742 0-1.564.158-1.799.316Z"/></svg>
